packages/radix-icons/twoTone/15/variant-boolean.svg

<svg width="15" height="15" fill="none" xmlns="http://www.w3.org/2000/svg">
  <path
    d="M7.50012 1.84314L13.157 7.49999L7.50012 13.1568L1.84326 7.49999L7.50012 1.84314Z"
    fill="currentColor"
    opacity=".2"
  />
  <path
    fill-rule="evenodd"
    clip-rule="evenodd"
    d="M7.85367 1.48957C7.65841 1.29431 7.34182 1.29431 7.14656 1.48957L1.48971 7.14642C1.29445 7.34169 1.29445 7.65827 1.48971 7.85353L7.14656 13.5104C7.34182 13.7056 7.65841 13.7056 7.85367 13.5104L13.5105 7.85353C13.7058 7.65827 13.7058 7.34169 13.5105 7.14642L7.85367 1.48957ZM7.5 2.55035L2.55037 7.49998L7.5 12.4496V2.55035Z"
    fill="currentColor"
  />
</svg>

<svg width="15" height="15" fill="none" xmlns="http://www.w3.org/2000/svg">
  <path
    d="M7.5 1.843L13.157 7.5 7.5 13.157 1.843 7.5 7.5 1.843z"
    fill="currentColor"
    opacity=".2"
  />
  <path
    fill-rule="evenodd"
    clip-rule="evenodd"
    d="M7.854 1.49a.5.5 0 00-.707 0L1.49 7.146a.5.5 0 000 .708l5.657 5.656a.5.5 0 00.707 0l5.657-5.656a.5.5 0 000-.708L7.854 1.49zM7.5 2.55L2.55 7.5l4.95 4.95v-9.9z"
    fill="currentColor"
  />
</svg>
